packages/icon/src/svg/redo.icon.svg

<svg width="24" height="24" viewBox="0 0 24 24" fill="none" xmlns="http://www.w3.org/2000/svg">
<path d="M12 22C15.6088 22 18.7711 20.0884 20.5296 17.2225C20.6741 16.987 20.5838 16.6821 20.3412 16.5498L19.463 16.0708C19.2208 15.9386 18.9185 16.0288 18.7713 16.2622C17.3547 18.5081 14.8516 20 12 20C7.58172 20 4 16.4183 4 12C4 7.58172 7.58172 4 12 4C14.7199 4 17.1229 5.3574 18.5683 7.43173L16.8536 9.14645C16.5386 9.46143 16.7617 10 17.2071 10H21.5C21.7761 10 22 9.77614 22 9.5V5.20711C22 4.76165 21.4614 4.53857 21.1464 4.85355L20.0004 5.99958C18.176 3.57093 15.2714 2 12 2C6.47715 2 2 6.47715 2 12C2 17.5228 6.47715 22 12 22Z" fill="white"/>
</svg>

<svg aria-label="redo icon" viewBox="0 0 24 24"><path d="M12 22a9.994 9.994 0 008.53-4.777.481.481 0 00-.189-.673l-.878-.48a.525.525 0 00-.692.192 8 8 0 11-.203-8.83l-1.714 1.714a.5.5 0 00.353.854H21.5a.5.5 0 00.5-.5V5.207a.5.5 0 00-.854-.353L20 6a9.985 9.985 0 00-8-4C6.477 2 2 6.477 2 12s4.477 10 10 10z"/></svg>
